img/home.svg

<svg width="43" height="43" viewBox="0 0 43 43" fill="none" xmlns="http://www.w3.org/2000/svg">
<g clip-path="url(#clip0_1519_1842)">
<path d="M40.9492 18.1953C40.6494 17.4012 40.0748 16.7247 39.5705 16.05C39.1123 15.4377 38.6414 14.8349 38.1595 14.2409C38.1551 14.235 38.15 14.2291 38.1455 14.224C38.2025 14.1079 38.2425 13.9818 38.2646 13.8481C38.4794 12.5402 38.6876 11.2333 38.8619 9.91934C38.9451 9.29047 39.0418 8.66256 39.0893 8.0296C39.113 7.71351 39.1367 7.39743 39.1596 7.08129C39.1661 6.9889 39.1768 6.89281 39.1876 6.79592C39.335 6.66777 39.4499 6.50133 39.5111 6.30152C39.6911 5.70664 39.4236 4.9316 38.768 4.74969C37.4521 4.38556 36.0849 4.07866 34.7228 3.96261C34.0362 3.90419 33.3038 3.83617 32.6207 3.93406C32.3814 3.96855 32.0432 4.04335 31.7568 4.17859C31.5041 4.23295 31.2623 4.40573 31.1547 4.6407C30.8742 5.25177 30.8768 6.02829 30.7484 6.68521C30.746 6.69625 30.7436 6.70808 30.7412 6.71912C29.8572 5.9818 28.9484 5.27797 28.0116 4.61941C27.2419 4.07817 26.4499 3.58099 25.606 3.16103C25.2332 2.97569 24.8354 2.85023 24.4318 2.75077C24.0738 2.66251 23.7257 2.67338 23.3725 2.71111C23.0498 2.16352 22.3844 2.00893 21.8115 2.2466C16.2946 4.5372 11.0545 7.44662 6.17654 10.8888C5.50301 11.3643 4.85814 11.8763 4.21612 12.3932C3.88534 12.6598 3.58584 12.9598 3.28332 13.2572C2.9687 13.5674 2.76031 13.9265 2.53316 14.302C2.3404 14.6207 2.5938 15.1747 3.02187 15.0389C3.34601 14.9359 3.69705 14.8604 4.00412 14.7154C4.33267 14.5607 4.65967 14.3483 4.9706 14.1595C5.04164 14.1165 5.11194 14.0726 5.18229 14.0279C5.13706 14.2512 5.09496 14.4756 5.05986 14.7028C4.95698 15.3615 4.85739 16.0188 4.77749 16.6808C4.70033 17.3148 4.62324 17.9481 4.54608 18.5822C4.46173 19.2734 4.44877 20.0769 4.76855 20.7115C5.07002 21.3104 5.863 21.3243 6.25156 20.8152C6.48063 20.5151 6.52984 20.2464 6.63517 19.896C6.74492 19.5283 6.81436 19.2106 6.83989 18.8226C6.88224 18.1597 6.92539 17.4968 6.96775 16.8339C7.00912 16.1965 7.032 15.5602 7.05101 14.9221C7.07163 14.2496 7.03833 13.5926 7.02755 12.9228C7.0272 12.8819 7.02356 12.8425 7.01901 12.8045C8.18353 12.0376 9.33466 11.2561 10.526 10.5294C13.0224 9.00565 15.6036 7.61906 18.253 6.3797C19.7713 5.66951 21.3126 5.00815 22.8722 4.39449C22.9858 4.34961 23.0848 4.2845 23.1697 4.20399C23.2931 4.30387 23.4184 4.40067 23.5546 4.47982C23.8715 4.66365 24.1804 4.85813 24.4946 5.04577C25.1591 5.44359 25.7841 5.89068 26.3891 6.37317C26.9712 6.83807 27.5394 7.31959 28.1111 7.79736C28.3962 8.03499 28.6779 8.27559 28.9587 8.51852C29.5849 9.06253 30.3565 9.86322 31.2604 9.81277C31.7931 9.7828 32.2685 9.40546 32.5052 8.92739C32.8436 8.24274 32.6326 7.54128 32.663 6.81989C32.6745 6.54137 32.6922 6.25368 32.6947 5.96573C32.7928 5.98299 32.8878 5.99684 32.9766 6.00945C33.5575 6.09249 34.1353 6.17212 34.7134 6.27177C35.6601 6.4348 36.5728 6.63549 37.4984 6.90431C37.4344 7.15594 37.3696 7.40752 37.3056 7.65916C37.1328 8.33298 35.9395 15.7504 35.9645 15.781C35.9595 15.8071 35.9537 15.8331 35.9493 15.8608C35.8057 16.8736 35.6997 17.8858 35.6005 18.9041C35.5018 19.9145 35.4003 20.943 35.4125 21.9587C35.4202 22.5587 35.8096 23.1006 36.4436 23.1449C37.0776 23.1893 37.5473 22.7107 37.6298 22.1138C37.7682 21.1078 37.7948 20.0748 37.8226 19.0595C37.8306 18.7728 37.837 18.4867 37.8434 18.2006C38.2477 18.7483 38.6525 19.2784 39.1749 19.7391C39.573 20.0895 40.2877 19.9746 40.6584 19.6524C41.093 19.2746 41.1439 18.7067 40.9508 18.1954L40.9492 18.1953Z" fill="#F8F9FA"/>
<path d="M21.2164 33.9124C21.225 33.7898 21.2019 33.6737 21.1479 33.5643C21.1047 33.3924 21.0217 33.2409 20.898 33.109C20.8114 33.0317 20.7247 32.9552 20.6389 32.878C20.6389 32.878 20.6389 32.878 20.6381 32.878C20.6381 32.878 20.6373 32.8779 20.6365 32.8778C20.5424 32.816 20.4427 32.765 20.3358 32.7256C20.3335 32.7246 20.3304 32.7228 20.3281 32.7218C20.2698 32.6961 20.3478 32.7256 20.1475 32.6836C19.9703 32.6304 19.7897 32.6257 19.6058 32.6697C19.4951 32.7076 19.3836 32.7454 19.2729 32.7833C19.1764 32.8478 19.0799 32.9115 18.9841 32.976C18.9068 33.0626 18.8303 33.1493 18.7531 33.2352L18.5943 33.549C18.5251 33.725 18.5046 33.9045 18.5326 34.0873C18.5241 34.21 18.5471 34.326 18.6011 34.4355C18.625 34.5524 18.6761 34.656 18.7547 34.7463C18.8081 34.8525 18.8828 34.9394 18.9806 35.0062C19.1029 35.1348 19.2509 35.2268 19.4248 35.2806C19.544 35.3049 19.6623 35.33 19.7814 35.3544C19.9028 35.3468 20.0234 35.3385 20.1448 35.331C20.2555 35.2931 20.367 35.2553 20.4777 35.2174C20.5742 35.1529 20.6707 35.0892 20.7665 35.0247C20.9073 34.9113 21.0107 34.772 21.0773 34.6086C21.146 34.507 21.1851 34.3953 21.1936 34.2734C21.2347 34.1554 21.243 34.0359 21.2188 33.9134L21.2164 33.9124Z" fill="#F8F9FA"/>
<path d="M31.2374 25.9619C31.2026 25.9338 31.1979 25.9319 31.3205 26.0325C31.3205 26.0325 31.319 26.0316 31.319 26.0308C31.2918 26.0081 31.2646 25.9854 31.2374 25.9619Z" fill="#F8F9FA"/>
<path d="M36.7052 29.814C36.3255 28.0555 35.5546 26.3993 34.3911 25.0222C33.3629 23.8058 32.0639 22.8217 30.6827 22.0408C29.5216 21.3842 28.3092 20.8336 27.0778 20.3257C27.8164 18.6782 28.3069 16.9525 28.0507 15.0986C27.7487 12.9061 26.238 11.0117 24.0563 10.4726C21.9234 9.94568 19.4206 10.2789 17.4675 11.278C15.5003 12.2842 13.9079 14.2369 13.8003 16.508C13.7259 18.0763 14.327 19.4725 15.1678 20.7366C12.6098 20.8867 10.0721 21.5584 8.06411 23.2052C5.26311 25.5024 4.12842 29.2192 4.08532 32.7313C4.07115 33.9068 4.19317 35.0919 4.35032 36.2554C4.5097 37.4326 4.74224 38.571 5.1977 39.6689C5.44844 40.2723 6.35219 40.0298 6.40283 39.4314C6.56178 37.5361 6.15153 35.6314 6.14931 33.7288C6.1465 32.0407 6.27386 30.4369 6.79236 28.882C7.25316 27.5 7.95809 26.2207 9.0246 25.2645C10.08 24.3178 11.3516 23.7592 12.7083 23.4603C13.1334 23.3668 13.5642 23.2961 13.9968 23.2447C14.205 23.22 14.4128 23.201 14.6213 23.1843C14.6317 23.1834 14.6679 23.1812 14.6984 23.1801C14.8156 23.1747 14.9328 23.1693 15.05 23.1655C15.9274 23.1396 16.8047 23.1825 17.6783 23.2684C18.8054 23.3801 19.3836 22.0015 18.7182 21.1818C18.45 20.8509 18.1836 20.5185 17.9289 20.1766C17.8134 20.0212 17.6995 19.8644 17.5889 19.7054C17.573 19.6819 17.5165 19.5963 17.4926 19.5602C17.4343 19.4681 17.3759 19.376 17.32 19.2824C17.1265 18.9584 16.9499 18.6235 16.8029 18.2754C16.761 18.1765 16.7208 18.076 16.6839 17.9742C16.6796 17.9563 16.6739 17.9343 16.6663 17.9065C16.6102 17.6897 16.5572 17.4739 16.5223 17.2522C16.5106 17.1801 16.502 17.1075 16.4942 17.0357C16.4924 17.0044 16.4897 16.9634 16.4911 16.9435C16.5017 16.7353 16.5087 16.5309 16.5352 16.3239C16.5359 16.3135 16.5373 16.3056 16.5387 16.2969C16.5682 16.1845 16.5992 16.073 16.6366 15.962C16.6628 15.8846 16.6914 15.8074 16.7223 15.7311C16.7426 15.6813 16.8216 15.5131 16.8139 15.5206C16.8992 15.3649 16.9953 15.2147 17.0975 15.0698C17.1455 15.0019 17.195 14.935 17.246 14.8697C17.2583 14.8538 17.4136 14.6813 17.4088 14.681C17.5019 14.5859 17.5973 14.4925 17.6979 14.4043C17.7917 14.322 17.8877 14.2423 17.9867 14.166C18.0146 14.1447 18.1719 14.0357 18.1839 14.0245C18.4952 13.8302 18.8246 13.6627 19.1626 13.5223C19.2731 13.4764 19.385 13.4322 19.4975 13.392C19.5171 13.3862 19.5399 13.3798 19.5693 13.3714C19.803 13.3037 20.0362 13.2416 20.2743 13.1902C20.6855 13.1013 21.0992 13.0446 21.5176 13.0019C21.5442 12.9989 21.5644 12.9971 21.5829 12.9952C21.701 12.9891 21.8188 12.9861 21.9366 12.9847C22.1568 12.9833 22.3772 12.9899 22.596 13.0084C22.7798 13.0237 22.9665 13.0439 23.1491 13.0767C23.1806 13.0845 23.2419 13.1 23.2638 13.1072C23.3866 13.1478 23.5117 13.1789 23.6335 13.2226C23.7022 13.2475 23.9998 13.3875 23.9578 13.3582C24.0501 13.4111 24.1415 13.4671 24.2284 13.5284C24.2688 13.5568 24.443 13.6986 24.4224 13.6732C24.5198 13.768 24.6103 13.8696 24.6966 13.9749C24.7423 14.0309 24.7839 14.0882 24.8263 14.1464C24.84 14.1682 24.8543 14.1916 24.8613 14.2057C24.9484 14.3807 25.0381 14.551 25.1176 14.7294C25.1287 14.7542 25.1378 14.7733 25.1447 14.789C25.1787 14.8978 25.2094 15.008 25.2361 15.1187C25.2868 15.3319 25.3199 15.5455 25.3496 15.7621C25.3523 15.7799 25.3545 15.7945 25.356 15.8082C25.3597 15.9261 25.361 16.0446 25.3584 16.1629C25.3523 16.3986 25.331 16.634 25.2979 16.8678C25.2869 16.9439 25.2736 17.0198 25.2603 17.0957C25.2562 17.0978 25.1892 17.3924 25.1784 17.4317C25.0371 17.9524 24.8465 18.4577 24.6288 18.9507C24.5261 19.1829 24.418 19.4122 24.3045 19.6388C24.287 19.672 24.25 19.7438 24.2444 19.7546C24.1515 19.9282 24.0601 20.1019 23.9656 20.2746C23.5174 21.0988 23.7538 22.0445 24.666 22.4133C25.3541 22.6911 26.0403 22.9728 26.7189 23.2715C27.0419 23.4142 27.3622 23.5598 27.6813 23.7118C27.8378 23.786 27.9926 23.8624 28.148 23.9397C28.158 23.9452 28.1689 23.9508 28.182 23.9573C28.2731 24.0053 28.3642 24.0533 28.4552 24.1021C29.0838 24.4405 29.6975 24.8092 30.2809 25.2222C30.5769 25.4309 30.8666 25.6489 31.1449 25.8804C31.1759 25.9066 31.2069 25.9328 31.2378 25.959C31.2621 25.9783 31.2999 26.0097 31.3179 26.027C31.3179 26.027 31.3179 26.027 31.3187 26.0279C31.3217 26.0305 31.3247 26.0331 31.3277 26.0357C31.3247 26.0331 31.3232 26.0322 31.3201 26.0296C31.4651 26.1654 31.6076 26.3018 31.7457 26.4443C31.9824 26.6881 32.2062 26.9439 32.4156 27.2114C32.5229 27.3486 32.6236 27.4885 32.7249 27.6301C32.7278 27.6343 32.7292 27.6376 32.732 27.6426C32.8003 27.7538 32.8693 27.865 32.9342 27.9792C33.1125 28.291 33.2708 28.6142 33.41 28.9457C33.4451 29.0282 33.4785 29.1114 33.511 29.1953C33.5062 29.1837 33.5659 29.3488 33.5923 29.4187C33.6073 29.4669 33.6258 29.5235 33.6303 29.539C33.6693 29.6682 33.7058 29.798 33.7407 29.9285C33.838 30.2994 33.9158 30.6754 33.9749 31.0541C34.0032 31.233 34.0275 31.4124 34.0469 31.5922C34.0574 31.6826 34.0663 31.7728 34.0744 31.863C34.0795 31.917 34.0885 32.0849 34.0915 32.1115C34.1219 32.9244 34.0916 33.7355 34.0022 34.5448C33.9468 35.0507 33.8699 35.5544 33.7789 36.0554C33.7606 36.1558 33.7408 36.2561 33.7227 36.3556L33.693 36.5056C33.7363 36.2974 33.7157 36.3976 33.6312 36.8054C33.584 37.0447 33.5416 37.285 33.4921 37.524C33.4863 37.55 33.4791 37.584 33.4686 37.6304C33.4415 37.7558 33.4143 37.8812 33.3864 38.0057C33.3305 38.2555 33.2722 38.5059 33.2131 38.7547C33.0893 39.2783 32.9592 39.7998 32.829 40.3221C32.662 40.9939 32.9093 41.7956 33.6405 42.0172C34.3106 42.2201 35.1123 41.9144 35.3356 41.2057C36.4958 37.5236 37.5389 33.686 36.7029 29.8123L36.7052 29.814Z" fill="#F8F9FA"/>
<path d="M27.7403 29.8705C27.7309 29.8674 27.7215 29.8644 27.7121 29.8613C27.7207 29.8643 27.7301 29.8674 27.7403 29.8705Z" fill="#F8F9FA"/>
<path d="M27.7713 29.8968C27.7713 29.8968 27.766 29.8924 27.7629 29.8906C27.7629 29.8906 27.7629 29.8906 27.7628 29.8922C27.7658 29.8948 27.7682 29.8958 27.7712 29.8984C27.7712 29.8984 27.7712 29.8984 27.7712 29.8976L27.7713 29.8968Z" fill="#F8F9FA"/>
<path d="M30.3425 29.3331C29.9509 27.8018 28.6135 27.2065 27.155 27.0957C24.4195 26.8884 21.6283 26.9397 18.9031 27.2494C17.5654 27.4016 16.2342 27.6118 14.9148 27.8805C13.632 28.1414 12.0114 28.4946 11.6425 29.9479C11.467 30.6375 11.4769 31.3537 11.4523 32.0603C11.4239 32.8451 11.4034 33.6296 11.3902 34.4138C11.3769 35.1756 11.3904 35.9329 11.4236 36.694C11.4416 37.101 11.4086 37.5613 11.4871 37.9606C11.5289 38.1756 11.5961 38.3932 11.6691 38.6088C11.5136 38.6235 11.3588 38.6391 11.2051 38.6516C10.4894 38.7112 10.3929 39.9426 11.1044 40.0916C11.7394 40.2248 12.3775 40.3927 13.0193 40.4856C13.6445 40.5757 14.2783 40.6232 14.9058 40.6911C16.1901 40.8314 17.4762 40.9245 18.7644 41.021C21.3123 41.2111 23.8611 41.387 26.4107 41.5629C27.0598 41.6083 27.7218 41.0815 27.7392 40.408C27.7494 39.9989 27.5736 39.6057 27.2751 39.3543C27.2826 39.3148 27.2902 39.2753 27.2985 39.2367C27.3009 39.2256 27.3034 39.213 27.3069 39.1973C27.3426 39.0293 27.3808 38.8615 27.4197 38.6945C27.5704 38.0496 27.744 37.4094 27.9387 36.7772C28.3225 35.5354 28.7901 34.3188 29.3399 33.1407C29.402 33.0074 29.465 32.8741 29.5295 32.7418C29.5462 32.7077 29.6517 32.4934 29.6482 32.4979C29.8202 32.1546 30.0064 31.8163 30.1451 31.4578C30.3982 30.8024 30.5206 30.0242 30.3433 29.3323L30.3425 29.3331ZM18.9267 38.6777C17.6625 38.6157 16.4001 38.5498 15.1345 38.531C14.502 38.522 13.868 38.5008 13.2356 38.503C13.1892 38.503 13.1434 38.5046 13.097 38.5053C13.2127 38.0868 13.2915 37.6698 13.3229 37.2206C13.3666 36.5953 13.4295 35.9707 13.458 35.3452C13.5144 34.0918 13.582 32.8391 13.6712 31.5872C13.6899 31.3188 13.7158 31.0517 13.7385 30.7844C13.7699 30.416 13.7331 30.9985 13.7678 30.64C13.7698 30.6113 13.7713 30.5906 13.7723 30.5754C13.78 30.5688 13.7914 30.5544 13.8058 30.5314C13.8334 30.5261 13.8645 30.5283 13.9162 30.5207C14.2614 30.4712 14.6095 30.4387 14.9546 30.39C16.1647 30.2185 17.3623 29.9973 18.5798 29.8696C20.9034 29.6263 23.1323 29.5364 25.5413 29.64C26.1174 29.6651 26.7003 29.6843 27.2742 29.7532C27.3019 29.7567 27.5063 29.799 27.5137 29.7956C27.5803 29.8162 27.6451 29.8392 27.7116 29.8614C27.5694 29.8123 27.6884 29.8262 27.7398 29.8706C27.7421 29.8708 27.7437 29.8717 27.746 29.8726C27.746 29.8726 27.7421 29.8716 27.7398 29.8706C27.7443 29.8741 27.748 29.8784 27.7517 29.8826C27.756 29.8901 27.7588 29.8959 27.7638 29.9051C27.7641 29.9003 27.7643 29.8971 27.7638 29.8931C27.763 29.893 27.7623 29.8922 27.7615 29.8913C27.7615 29.8913 27.7608 29.8897 27.76 29.8896C27.7616 29.8897 27.7623 29.8914 27.7631 29.8922C27.7594 29.7383 27.7649 29.8091 27.7714 29.8984C27.8673 29.97 27.8681 29.97 27.7714 29.8992C27.7756 29.9531 27.7802 30.0127 27.7837 30.0321C27.7315 29.7484 27.7705 30.0945 27.7694 30.156C27.7687 30.1888 27.7695 30.212 27.7707 30.2289C27.7614 30.2475 27.7499 30.2755 27.7351 30.3145C27.6852 30.4454 27.6439 30.5778 27.5884 30.7076C27.5405 30.8195 27.4881 30.9287 27.4348 31.0378C27.4229 31.0602 27.3791 31.1484 27.3736 31.1584C27.1865 31.5223 27.0032 31.888 26.8285 32.2584C26.2629 33.4562 25.7817 34.6943 25.3884 35.9585C25.0849 36.9338 24.7879 37.9526 24.6036 38.9746C22.7116 38.8719 20.8194 38.7716 18.9266 38.6785L18.9267 38.6777Z" fill="#F8F9FA"/>
</g>
<defs>
<clipPath id="clip0_1519_1842">
<rect width="40" height="40" fill="white" transform="translate(2.79026) rotate(4)"/>
</clipPath>
</defs>
</svg>

<svg xmlns="http://www.w3.org/2000/svg" width="43" height="43" fill="none"><g fill="#F8F9FA" clip-path="url(#a)"><path d="M40.95 18.195c-.3-.794-.875-1.47-1.38-2.145a59 59 0 0 0-1.425-1.826 1.4 1.4 0 0 0 .12-.376c.214-1.308.423-2.615.597-3.929.083-.629.18-1.256.227-1.89q.036-.473.07-.948.011-.139.029-.285c.147-.128.262-.295.323-.494.18-.595-.087-1.37-.743-1.552-1.316-.364-2.683-.671-4.045-.787-.687-.059-1.42-.127-2.102-.029-.24.035-.578.11-.864.245a.87.87 0 0 0-.602.462c-.28.61-.278 1.387-.407 2.044l-.007.034a42 42 0 0 0-2.73-2.1 18.6 18.6 0 0 0-2.405-1.458 5.7 5.7 0 0 0-1.174-.41c-.358-.088-.706-.078-1.06-.04-.322-.547-.988-.702-1.56-.464a81 81 0 0 0-15.635 8.642c-.674.475-1.319.987-1.96 1.504-.332.267-.631.567-.934.864-.314.31-.523.67-.75 1.045-.193.319.06.873.489.737.324-.103.675-.179.982-.324.329-.154.656-.367.967-.556l.211-.131q-.069.335-.122.675a57 57 0 0 0-.283 1.978l-.23 1.901c-.085.691-.098 1.495.222 2.13.301.598 1.094.612 1.483.103.229-.3.278-.569.383-.919.11-.368.18-.685.205-1.073l.128-1.99c.041-.636.064-1.273.083-1.91.02-.673-.013-1.33-.023-2q0-.061-.009-.118c1.165-.767 2.316-1.549 3.507-2.276a79.5 79.5 0 0 1 12.346-6.135.9.9 0 0 0 .298-.19c.123.1.248.197.385.276.317.184.625.378.94.566.664.398 1.29.845 1.894 1.327.582.465 1.15.947 1.722 1.424q.427.357.848.722c.626.544 1.398 1.344 2.301 1.294.533-.03 1.009-.408 1.245-.886.339-.684.128-1.386.158-2.107.012-.279.03-.566.032-.854q.148.024.282.043c.58.083 1.158.163 1.736.263.947.163 1.86.363 2.785.632l-.192.755c-.173.674-1.366 8.091-1.341 8.122l-.016.08a70 70 0 0 0-.349 3.043c-.098 1.01-.2 2.039-.187 3.055.007.6.397 1.142 1.03 1.186.635.044 1.104-.434 1.187-1.031.138-1.006.165-2.04.193-3.055q.012-.429.02-.858c.405.547.81 1.077 1.332 1.538.398.35 1.113.236 1.483-.087.435-.377.486-.945.293-1.457zM21.216 33.912a.67.67 0 0 0-.068-.348 1 1 0 0 0-.25-.455l-.26-.231h-.002a1.5 1.5 0 0 0-.3-.152l-.008-.004c-.058-.026.02.004-.18-.038a1 1 0 0 0-.542-.014l-.333.113-.289.193-.23.26-.16.313q-.104.264-.061.538a.67.67 0 0 0 .068.348.67.67 0 0 0 .154.311.7.7 0 0 0 .226.26q.183.193.444.275l.356.073.364-.023.333-.114.288-.192q.212-.171.311-.416a.7.7 0 0 0 .117-.336.7.7 0 0 0 .025-.36zM31.237 25.962a1 1 0 0 0 .084.07l-.002-.001z"/><path d="M36.705 29.814c-.38-1.759-1.15-3.415-2.314-4.792-1.028-1.216-2.327-2.2-3.708-2.981-1.161-.657-2.374-1.207-3.605-1.715.738-1.648 1.229-3.373.973-5.227-.302-2.193-1.813-4.087-3.995-4.626-2.133-.527-4.635-.194-6.588.805-1.968 1.006-3.56 2.959-3.668 5.23-.074 1.568.527 2.965 1.368 4.229-2.558.15-5.096.821-7.104 2.468-2.8 2.297-3.936 6.014-3.979 9.526-.014 1.176.108 2.36.265 3.524.16 1.178.392 2.316.848 3.414.25.603 1.154.36 1.205-.238.159-1.895-.251-3.8-.254-5.702-.003-1.688.125-3.292.643-4.847.461-1.382 1.166-2.661 2.233-3.617 1.055-.947 2.327-1.506 3.683-1.805a13 13 0 0 1 1.99-.28l.352-.014c.877-.026 1.755.017 2.628.102 1.127.112 1.706-1.267 1.04-2.086-.268-.331-.534-.663-.79-1.005q-.173-.234-.34-.472l-.095-.145q-.089-.137-.173-.278a8 8 0 0 1-.517-1.007 6 6 0 0 1-.12-.3l-.017-.069a7 7 0 0 1-.144-.654 4 4 0 0 1-.028-.216c-.002-.032-.004-.073-.003-.093.01-.208.018-.412.044-.62q0-.014.004-.026a4.223 4.223 0 0 1 .184-.566c.02-.05.099-.218.09-.21a5 5 0 0 1 .433-.651c.012-.016.168-.189.163-.189a5 5 0 0 1 .578-.515c.028-.021.185-.13.197-.142a6.7 6.7 0 0 1 1.313-.632l.072-.02q.35-.103.705-.182c.412-.089.825-.145 1.244-.188l.065-.007q.177-.009.354-.01a7.3 7.3 0 0 1 1.212.092c.032.008.093.023.115.03.123.04.248.072.37.116.068.024.366.164.324.135q.14.08.27.17c.04.029.215.17.194.145q.146.143.275.302.066.084.13.171l.034.06c.087.175.177.345.257.523q.016.037.027.06a5 5 0 0 1 .211 1.02q.006.176.002.354a6 6 0 0 1-.06.705q-.017.114-.038.228c-.004.002-.07.296-.082.336-.14.52-.332 1.026-.55 1.519q-.153.348-.323.688l-.06.116q-.14.26-.28.52c-.448.824-.211 1.77.701 2.138.688.278 1.374.56 2.053.858a37 37 0 0 1 1.429.669l.034.017.273.145a18 18 0 0 1 1.826 1.12q.445.312.864.658.046.04.093.079c.024.02.062.05.08.068l.01.009-.008-.006q.218.202.426.414a9.6 9.6 0 0 1 .979 1.186l.007.013q.103.165.202.336a9 9 0 0 1 .658 1.44c.015.048.034.104.038.12q.06.194.11.39a11 11 0 0 1 .307 1.663q.016.135.027.271c.006.054.015.222.018.248q.045 1.22-.09 2.434-.085.76-.223 1.51l-.056.3-.03.15-.062.3c-.047.24-.09.48-.139.719l-.023.106a51 51 0 0 1-.256 1.125q-.187.784-.384 1.567c-.167.672.08 1.474.812 1.695.67.203 1.471-.103 1.695-.811 1.16-3.682 2.203-7.52 1.367-11.394zM27.74 29.87l-.028-.009z"/><path d="M27.771 29.897s-.005-.005-.008-.006v.001l.008.006z"/><path d="M30.343 29.333c-.392-1.531-1.73-2.126-3.188-2.237a44 44 0 0 0-8.252.153 46 46 0 0 0-3.988.632c-1.283.26-2.904.614-3.272 2.067-.176.69-.166 1.406-.19 2.112q-.044 1.178-.063 2.354c-.013.762 0 1.519.034 2.28.018.407-.015.867.063 1.267.042.215.11.432.182.648q-.233.022-.464.043c-.716.06-.812 1.29-.1 1.44.634.133 1.272.3 1.914.394.626.09 1.26.137 1.887.205 1.284.14 2.57.233 3.858.33 2.548.19 5.097.366 7.647.542.649.045 1.31-.482 1.328-1.155.01-.41-.165-.802-.464-1.054l.024-.117.008-.04q.054-.252.113-.503.226-.968.519-1.917a28.5 28.5 0 0 1 1.59-4.035l.12-.244c.171-.343.357-.682.496-1.04.253-.656.376-1.434.198-2.126zm-11.416 9.345c-1.264-.062-2.527-.128-3.793-.147-.632-.009-1.266-.03-1.898-.028l-.139.002c.116-.418.194-.835.226-1.284.044-.626.107-1.25.135-1.876.056-1.253.124-2.506.213-3.758.019-.268.045-.535.068-.803.03-.368-.006.215.029-.144l.004-.065a.2.2 0 0 0 .034-.044c.027-.005.059-.003.11-.01.345-.05.694-.082 1.039-.131 1.21-.172 2.407-.393 3.625-.52a46 46 0 0 1 6.961-.23c.576.025 1.16.044 1.733.113.028.004.232.046.24.043q.098.031.198.065c-.143-.049-.024-.035.028.01q.003 0 .006.002l-.006-.002.012.012.012.022v-.012q-.002 0-.002-.002l-.002-.001q.002 0 .003.002c-.004-.154.002-.083.008.006q.145.108 0 .001c.005.054.01.114.013.133-.052-.284-.014.063-.015.124q0 .049.002.073a1 1 0 0 0-.036.085c-.05.131-.091.264-.147.394q-.072.166-.153.33l-.061.12q-.281.545-.546 1.1a28.5 28.5 0 0 0-1.44 3.7c-.303.976-.6 1.995-.784 3.017q-2.839-.155-5.677-.297"/></g><defs><clipPath id="a"><path fill="#fff" d="m2.79 0 39.903 2.79-2.79 39.903L0 39.903z"/></clipPath></defs></svg>
